ecoconception/src/assets/svg/linkedin.svg

<svg width="66" height="66" viewBox="0 0 66 66" fill="none" xmlns="http://www.w3.org/2000/svg">
<path d="M33 0C14.7727 0 0 14.7727 0 33C0 51.2273 14.7727 66 33 66C51.2273 66 66 51.2273 66 33C66 14.7727 51.2273 0 33 0ZM23.7703 46.8059H17.3379V26.2195H23.7703V46.8059ZM20.3801 23.6414H20.3285C17.9953 23.6414 16.4871 22.0688 16.4871 20.0707C16.4871 18.034 18.0469 16.5 20.4187 16.5C22.7906 16.5 24.2473 18.034 24.2988 20.0707C24.3117 22.0559 22.8035 23.6414 20.3801 23.6414ZM49.5 46.8059H42.2039V36.1582C42.2039 33.3738 41.0695 31.466 38.5559 31.466C36.6352 31.466 35.5652 32.7551 35.0754 33.9926C34.8949 34.4309 34.9207 35.0496 34.9207 35.6812V46.8059H27.6891C27.6891 46.8059 27.7793 27.934 27.6891 26.2195H34.9207V29.4551C35.3461 28.0371 37.6535 26.0262 41.3402 26.0262C45.9164 26.0262 49.5 28.991 49.5 35.359V46.8059Z" fill="black"/>
</svg>

<svg xmlns="http://www.w3.org/2000/svg" width="66" height="66" fill="none"><path fill="#000" d="M33 0C14.773 0 0 14.773 0 33s14.773 33 33 33 33-14.773 33-33S51.227 0 33 0Zm-9.23 46.806h-6.432V26.22h6.432v20.586ZM20.38 23.64h-.052c-2.333 0-3.84-1.572-3.84-3.57 0-2.037 1.559-3.571 3.93-3.571 2.373 0 3.83 1.534 3.88 3.57.014 1.986-1.494 3.571-3.918 3.571ZM49.5 46.806h-7.296V36.158c0-2.784-1.135-4.692-3.648-4.692-1.92 0-2.99 1.29-3.48 2.527-.181.438-.155 1.057-.155 1.688v11.125h-7.232s.09-18.872 0-20.586h7.232v3.235c.425-1.418 2.733-3.429 6.42-3.429 4.575 0 8.159 2.965 8.159 9.333v11.447Z"/></svg>
